X: 3
T: The Miller O'Dron
M: 4/4
L: 1/8
R: strathspey
K: A Major
| c/B/ |A<FF<A E>FE<C | A,<A,d>c B2 Bc/B/ |
A<FF>A E>FE<C | D<FE>G A2 Ac/B/ |
A<FF<A E>FE<C | A,<A,d>c B2 Bc/d/ |
e>Bc>G A>EF>C | D>FE>G A2 A ||
c/d/ |e<cc<a e>e f/e/d/c/ | e<cc<a f2 f>a |
e<cc>a e>e f/e/d/c/ | d>Bc>A F2 Fc/d/ |
e<cc<a e>e f/e/d/c/ | e>fa>g f2 f>g |
(3agf (3efg (3aed (3cBA | (3dcB (3cBA (3Ffe (3dcB ||
